www/assets/icons/123.svg

<svg xmlns="http://www.w3.org/2000/svg" width="24" height="24" viewBox="0 0 24 24" fill='currentColor'><path d="M7.25 15h-1.5v-4.5h-1.5V9h3zm6.5-1.5h-3v-1h2c.55 0 1-.45 1-1V10c0-.55-.45-1-1-1h-3.5v1.5h3v1h-2c-.55 0-1 .45-1 1V15h4.5zm6 .5v-4c0-.55-.45-1-1-1h-3.5v1.5h3v1h-2v1h2v1h-3V15h3.5c.55 0 1-.45 1-1"/></svg>

<svg width="24" height="24" viewBox="0 0 24 24" xmlns="http://www.w3.org/2000/svg" fill='currentColor'><path d="M7.25 15H5.75V10.5H4.25V9H7.25V15ZM13.75 13.5H10.75V12.5H12.75C13.3 12.5 13.75 12.05 13.75 11.5V10C13.75 9.45 13.3 9 12.75 9H9.25V10.5H12.25V11.5H10.25C9.7 11.5 9.25 11.95 9.25 12.5V15H13.75V13.5ZM19.75 14V10C19.75 9.45 19.3 9 18.75 9H15.25V10.5H18.25V11.5H16.25V12.5H18.25V13.5H15.25V15H18.75C19.3 15 19.75 14.55 19.75 14Z"/></svg>
